X:400
T: Con Cassidy's
S: Traditional Irish Music (K.Tweed)
Z: B.Black
L: 1/8
M: 6/8
R: jig
K: G
A|BAB cBc|dgg d2 g|fed cAF|Ggg d2 c|
BAB cBc|dgg dgg|fed cAF|1 G3 G2 :|2\
G3 GB/c/d ||
g2 G fGG|efg d2 c|BA^G Aag|fe^d efg|
a2 f gfe|fed fga|gfe def|1 gGG GB/c/d :|2\
gGG G2 A||
